assets/img/bg_cacaocriollo.svg

<?xml version="1.0" encoding="UTF-8" standalone="no"?>
<svg width="425px" height="415px" viewBox="0 0 425 415" version="1.1" xmlns="http://www.w3.org/2000/svg" xmlns:xlink="http://www.w3.org/1999/xlink" xmlns:sketch="http://www.bohemiancoding.com/sketch/ns">
    <!-- Generator: Sketch 3.2.2 (9983) - http://www.bohemiancoding.com/sketch -->
    <title>bg_cacaocriollo</title>
    <desc>Created with Sketch.</desc>
    <defs></defs>
    <g id="Blank-Project" stroke="none" stroke-width="1" fill="none" fill-rule="evenodd" sketch:type="MSPage">
        <g id="Pagina-Producto-25" sketch:type="MSArtboardGroup" transform="translate(-419.000000, -116.000000)" stroke="#3C1C1C" stroke-width="17.6970005" stroke-linecap="round" stroke-linejoin="round">
            <g id="bg_camucamu" sketch:type="MSLayerGroup" transform="translate(0.000000, 62.000000)">
                <g id="bg_cacaocriollo" transform="translate(427.817073, 63.000000)" sketch:type="MSShapeGroup">
                    <path d="M406.563798,113.695845 C406.563798,113.695845 339.458338,94.5239873 262.766949,59.3716227 C186.07556,24.2232176 27.8978383,0.256416162 27.8978383,0.256416162" id="Stroke-186"></path>
                    <path d="M212.25018,7.94854413 C212.25018,7.94854413 92.4201323,-20.8092419 22.1193625,122.987607 C-48.1814073,266.784456 73.2443154,367.121928 70.0490059,396.837911 C70.0490059,396.837911 78.3599783,345.07152 96.5736387,333.889916 C114.787299,322.704353 133.959157,287.551989 133.959157,287.551989 C133.959157,287.551989 57.2677676,129.378226 178.69745,47.8918933 C300.127132,-33.5944396 213.849814,23.9250919 213.849814,23.9250919" id="Stroke-188"></path>
                    <path d="M102.531366,317.094918 C102.531366,317.094918 89.7501275,294.727751 81.7598738,286.737497 L73.7735797,278.747244 C73.7735797,278.747244 43.4161591,301.11837 40.2208496,315.495283 C37.02554,329.876156 19.4493577,280.346878 59.3927069,259.575386 C99.3360561,238.803894 123.302858,285.141822 123.302858,285.141822 C123.302858,285.141822 120.107548,229.217966 94.5411121,224.426981 C68.9786356,219.632037 25.8399768,251.589092 22.6446673,265.966005 C19.4493577,280.346878 21.0450327,280.346878 21.0450327,280.346878 C21.0450327,280.346878 -1.32213416,251.589092 14.6544136,230.8176 C30.6309614,210.046108 73.7735797,184.483632 91.3458025,187.678941 C108.921985,190.874251 108.921985,195.665236 108.921985,195.665236 C108.921985,195.665236 115.954042,170.102759 102.531366,165.307815 C89.1086899,160.51683 27.7563707,178.093013 17.2122451,198.860545 C6.66811948,219.632037 1.87317539,229.859403 1.87317539,229.859403 C1.87317539,229.859403 -9.3123878,181.288322 25.8399768,155.721886 C60.988382,130.15941 107.643069,123.768791 113.075491,123.768791 C118.507913,123.768791 136.084096,82.2258071 136.084096,82.2258071 C136.084096,82.2258071 107.32631,74.2395129 75.3692547,88.6164262 C43.4161591,102.997299 24.2403423,130.15941 16.2540481,142.940648 L8.26379451,155.721886 C8.26379451,155.721886 43.4161591,67.8488938 91.3458025,55.0636961 C139.279405,42.2824579 192.003993,35.8918387 192.003993,35.8918387 C192.003993,35.8918387 113.716929,69.4445688 89.7501275,208.446474 C65.783326,347.452338 68.9786356,377.809759 68.9786356,377.809759" id="Stroke-190"></path>
                    <path d="M228.236225,29.6398018 C228.236225,29.6398018 244.212772,31.2394363 258.593645,77.5734047 C272.974518,123.907373 280.960812,248.532365 274.570193,282.085095 C268.179574,315.637825 241.017463,350.78623 233.031169,358.776484 C225.040915,366.762778 223.44128,366.762778 223.44128,366.762778 C223.44128,366.762778 287.992869,334.809682 308.122923,256.518659 C328.252977,178.231595 306.527248,72.7784606 241.017463,20.0538731 C241.017463,20.0538731 333.685399,82.3643893 316.113177,240.542111 C312.276429,333.851485 217.050661,374.753031 217.050661,374.753031 C217.050661,374.753031 164.326074,358.776484 138.763597,294.866333" id="Stroke-192"></path>
                </g>
            </g>
        </g>
    </g>
</svg>

<?xml version="1.0" encoding="UTF-8" standalone="no"?>
<svg xmlns:sketch="http://www.bohemiancoding.com/sketch/ns" xmlns="http://www.w3.org/2000/svg" height="415px" width="425px" version="1.1" xmlns:xlink="http://www.w3.org/1999/xlink" viewBox="0 0 425 415"><!-- Generator: Sketch 3.2.2 (9983) - http://www.bohemiancoding.com/sketch -->
 <title>bg_cacaocriollo</title>
 <desc>Created with Sketch.</desc>
 <g id="Blank-Project" fill-rule="evenodd" sketch:type="MSPage" fill="none">
  <g id="Pagina-Producto-25" stroke-linejoin="round" transform="translate(-419 -116)" sketch:type="MSArtboardGroup" stroke="#3C1C1C" stroke-linecap="round" stroke-width="17.697">
   <g id="bg_camucamu" transform="translate(0 62)" sketch:type="MSLayerGroup">
    <g id="bg_cacaocriollo" sketch:type="MSShapeGroup" transform="translate(427.82 63)">
     <path id="Stroke-186" d="m406.56 113.7s-67.1-19.176-143.79-54.328c-76.69-35.149-234.87-59.116-234.87-59.116"/>
     <path id="Stroke-188" d="m212.25 7.9485s-119.83-28.758-190.13 115.04c-70.301 143.79 51.124 244.13 47.929 273.85 0 0 8.311-51.77 26.525-62.95 18.216-11.19 37.386-46.34 37.386-46.34s-76.692-158.17 44.74-239.66c121.43-81.484 35.15-23.965 35.15-23.965"/>
     <path id="Stroke-190" d="m102.53 317.09s-12.78-22.36-20.77-30.35l-7.986-7.99s-30.358 22.37-33.553 36.75-20.772-35.15 19.172-55.92c39.943-20.78 63.907 25.56 63.907 25.56s-3.19-55.92-28.759-60.71c-25.562-4.8-68.701 27.16-71.896 41.54-3.196 14.38-1.6 14.38-1.6 14.38s-22.367-28.76-6.391-49.53c15.977-20.77 59.12-46.34 76.692-43.14 17.574 3.19 17.574 7.99 17.574 7.99s7.03-25.57-6.39-30.36c-13.421-4.79-74.774 12.78-85.318 33.55s-15.339 31-15.339 31c0.0002 0-11.185-48.57 23.967-74.14 35.148-25.56 81.8-31.95 87.24-31.95 5.43 0 23-41.544 23-41.544s-28.75-7.986-60.711 6.39c-31.953 14.384-51.129 41.544-59.115 54.324l-7.9902 12.78s35.152-87.871 83.082-100.66c47.934-12.778 100.65-19.168 100.65-19.168s-78.28 33.553-102.25 172.56c-23.967 139-20.771 169.36-20.771 169.36"/>
     <path id="Stroke-192" d="m228.24 29.64s15.97 1.599 30.35 47.933c14.38 46.337 22.37 170.96 15.98 204.52-6.39 33.55-33.55 68.7-41.54 76.69-7.99 7.98-9.59 7.98-9.59 7.98s64.55-31.95 84.68-110.24-1.59-183.74-67.1-236.47c0 0.004 92.67 62.314 75.09 220.49-3.83 93.31-99.06 134.21-99.06 134.21s-52.72-15.97-78.29-79.88"/>
    </g>
   </g>
  </g>
 </g>
</svg>
